X:1
T:Bo Lamkin
M:3/4
L:1/4
K:D
 z2 D| D3-| D D D-| D3/2 D/2D/2 F/2| E A,2-| A, z D| F D D/2E/2| D3-|\
 D z2| z2 D| D3-| D C D| B, A,3/2 D/2| F D E| D3-| D z D| D3-| D B, B,|\
 B, A,2-| A,2 D| F D E| D3-| D z2|
